X:1
T:Title
L:1/8
Q:1/4=104
M:3/4
K:Ab
V:1 treble nm="Church Organ, Staff"
V:1
 E>E F3 F | E>E F2 F2 | F>F G3 G | FF/G/- G3 z/ B/- | BB/d/- d2 z/ cB/- | BB/e/- e z/ A/- A z | %6
w: By~J.~F.~Bridge * * *||||||
 z2 z B/B/- B/GB/- | B/AG/- G3 z | z z/ G/- G2- G/AB/- | B/cd/- d3 z/ c/- | c>B- B3 z/ B/- | %11
w: |||||
 B>e- e4- | e>e- e2- e/dc/- | c>B- B2- B/AG/- | G>A- A2- A/Bc/- | c/de/- e3 z/ e/- | %16
w: |||||
 e>f- f3 z/ f/- | f>e- e3 z/ e/- | e>e- e>d- d z/ d/- | d>c- c z/ e/- e/dc/- | c/BA/- A3 z/ A/- | %21
w: |||||
 A z z z/ G/- G z/ G/- | G>A- A3 z |] %23
w: ||

